!! 00000] TT[WS
!!!OTL: Shuigua xibaoto
!!!ARE: Asia, China, Shanxi Hequ
!! Ethnic Group: Han
!! WI, 261 (2)
!!!SCT: J0309
!!!YEM: Copyright 1995, estate of Helmut Schaffrath.
**kern
*ICvox
*Ivox
*M2/4
*k[f#c#g#d#]
*E:
{8cc#
8b
8a
8b
=1
8.cc#
16ff#
8ee
8cc#
=2
2b
=3
8ff#
8ee
16cc#
16ee
16cc#
16b
=4
2a}
=5
{8b
8a
8b
8ee
=6
8cc#
8b
8a
8f#
=7
4.e
8f#
=8
8c#
8e
8c#
8B}
=9
{4B
4e
=10
8ff#
8ee
16cc#
16ee
16cc#
16b
=11
8ff#
8ee
16cc#
16ee
16cc#
16b
=12
2a}
=13
{8b
8a
8b
8ee
=14
8cc#
8b
8a
8f#
=15
4.e
8f#
=16
8c#
8e
8c#
8B}
=17
{8b
8a
8f#
8e
=18
2f#
=19
2b}
=20
{8ee
8dd#
8cc#
8b
=21
8a
8b
8ee
8cc#
=22
8b
16a
16b
16cc#
16a
16f#
16b
=23
4.e
16f#
16e}
=24
{8c#
8e
8c#
8B
=25
8ee
8cc#
8b
8a
=26
8e
8f#
8f#
8c#
=27
4.B
16c#
16B}
=28
{8a
8B
8e
8c#
=29
4.B
8c#
=30
2B}
==
!!!AGN: Xiaodiao. Qingge
!!!ONB: ESAC (Essen Associative Code) Database: CHINA
!!!AMT: simple duple
!!!AIN: vox
!!!EED: Helmut Schaffrath
!!!EEV: 1.0
*-
